X:51
T:Trip to Cork. THO5.051
M:6/8
L:1/8
B:Thompson's Complete Collection of 200 Favourite Dances Vol.5
F:https://www.libraryofdance.org/manuals/1780c-Thompson-Compleat-5.pdf
Z:vmp. Peter Dunk 2024
Q:3/8=110
K:G
d|gfe dcB|edc BAG|cde dcB|cAA A2d|
gfe dcB|edc BAG|ced eaf|ggg g2:|
|:d|BGG dGG|eGG dGG|BGG dcB|cAA A2d|
BGG dGG|eGG dGG|cde dec|BGG G2:|
W:
W:The 1st Lady set to the 2nd Gent, turn
W:the 3rd & retreat back to her place ./.
W:First Gent set to the 2nd Lady, turn
W:the 3rd and remain at bottom ./:
W:foot it 3 & 3 top and bottom then sideways :/.
W:hands six quite round :/:

